X: 21352
T: Kerry Cow, The
R: polka
M: 2/4
K: Dmajor
A2 A/>B/A/G/|FA d2|GG/G/ GF|EF GE|
A2 A/B/A/G/|FA d>A|FA Ge|d2 d2|
A2 A/>B/A/G/|FD d2|GG/G/ GF|EF GE|
A2 A/B/A/G/|FA d>A|FA Ge|d2 d2||
d>e f>f|ec A2|BG GA|BA A2|
(3d/c/d/ d/e/ f (3f/g/f/|ec AG|=cc/c/ ce|d2 d2|
d>e f>f|ec A>A|BG GA|BA A2|
d>e f>f|ec AG/G/|=cc/c/ cE|D2 d2||

